dist/img/lk.svg

<svg width="30" height="30" viewBox="0 0 30 30" fill="none" xmlns="http://www.w3.org/2000/svg">
<path d="M15 0.833252C7.18004 0.833252 0.833374 7.17992 0.833374 14.9999C0.833374 22.8199 7.18004 29.1666 15 29.1666C22.82 29.1666 29.1667 22.8199 29.1667 14.9999C29.1667 7.17992 22.82 0.833252 15 0.833252ZM15 5.08325C17.3517 5.08325 19.25 6.98159 19.25 9.33325C19.25 11.6849 17.3517 13.5833 15 13.5833C12.6484 13.5833 10.75 11.6849 10.75 9.33325C10.75 6.98159 12.6484 5.08325 15 5.08325ZM15 25.1999C11.4584 25.1999 8.32754 23.3866 6.50004 20.6383C6.54254 17.8191 12.1667 16.2749 15 16.2749C17.8192 16.2749 23.4575 17.8191 23.5 20.6383C21.6725 23.3866 18.5417 25.1999 15 25.1999Z" fill="#0D1C41"/>
</svg>

<svg width="30" height="30" fill="none" xmlns="http://www.w3.org/2000/svg"><path d="M15 .833C7.18.833.833 7.18.833 15 .833 22.82 7.18 29.167 15 29.167c7.82 0 14.167-6.347 14.167-14.167C29.167 7.18 22.82.833 15 .833Zm0 4.25a4.244 4.244 0 0 1 4.25 4.25 4.244 4.244 0 0 1-4.25 4.25 4.244 4.244 0 0 1-4.25-4.25A4.244 4.244 0 0 1 15 5.083ZM15 25.2a10.2 10.2 0 0 1-8.5-4.562c.043-2.819 5.667-4.363 8.5-4.363 2.82 0 8.457 1.544 8.5 4.363A10.2 10.2 0 0 1 15 25.2Z" fill="#0D1C41"/></svg>
